X: 287
T: Jiemei erren
L: 1/8
M: 2/4
K: F
f d d c [I:setbarnb 1]| 
f d d c | 
d c G c/ c/ | 
c c/ A/ G c | 
z F d c | 
f c c G | 
c G E G/ G/ | 
C4 | 
A c/ c/ G c | 
E FC2 | 
A c/ c/ G c | 
E FC2 | 
c c/ c/ G c | 
E FC2 | 
A c/ c/ G c | 
E FC2 | 
G/ c/ G/ F/ E F | 
G A c c | 
f d d c | 
f d/ c/ D F | 
G/ F/ DC2 |]

@@@ Tune index: 9161
